img/logo/instagram.svg

<svg width="32" height="31" viewBox="0 0 32 31" fill="none" xmlns="http://www.w3.org/2000/svg">
<rect x="5.83911" y="6.32568" width="19.9503" height="19.9503" fill="white"/>
<path fill-rule="evenodd" clip-rule="evenodd" d="M12.4829 0.183163C6.2652 1.4895 1.54379 6.22487 0.229334 12.4731C-0.0459162 13.7817 -0.0804643 16.8247 0.16413 18.2058C0.906347 22.3965 3.44409 26.2422 6.98958 28.549C8.51051 29.5387 9.75327 30.1001 11.6207 30.6413C12.7249 30.9613 13.2439 31.0074 15.6458 30.9991C18.1741 30.9902 18.5233 30.9526 19.8501 30.5456C23.5667 29.4059 26.5899 27.1755 28.5948 24.0939C29.5846 22.573 30.1459 21.3302 30.6872 19.4628C31.0072 18.3586 31.0533 17.8395 31.045 15.4377C31.0361 12.9094 30.9984 12.5602 30.5915 11.2334C28.9169 5.77283 24.9321 1.90619 19.3598 0.335304C18.0649 -0.0298032 13.9315 -0.121121 12.4829 0.183163ZM21.0066 7.72812C21.9582 8.13767 22.7818 8.92514 23.2582 9.88097L23.6745 10.7166V15.3595C23.6745 20.7627 23.6095 21.1141 22.3809 22.3426C21.1305 23.593 20.7749 23.6553 15.2115 23.5972L10.4554 23.5476L9.70201 23.1048C8.82128 22.5869 8.16762 21.8609 7.76326 20.9513C7.51169 20.3852 7.4679 19.6829 7.42411 15.5177C7.37415 10.7795 7.37723 10.7267 7.75304 9.97099C8.16843 9.13535 9.3103 7.98991 10.0107 7.70655C10.9629 7.321 11.7378 7.27591 15.9701 7.35928C19.6426 7.43162 20.4556 7.49115 21.0066 7.72812ZM11.753 8.85815C10.6363 9.13 9.72732 9.86605 9.1361 10.9773C8.87253 11.4728 8.82728 12.0136 8.77992 15.2343C8.71844 19.4291 8.83409 20.0803 9.82139 21.097C10.937 22.2456 10.959 22.25 15.5773 22.25H19.7262L20.5201 21.7592C21.0117 21.4552 21.5011 20.9661 21.8051 20.4748L22.2959 19.6815L22.3473 15.8904C22.4066 11.5077 22.3009 10.9393 21.2257 9.86427C20.1862 8.82458 19.5974 8.7039 15.6574 8.72304C13.7776 8.73229 12.0206 8.79295 11.753 8.85815ZM20.6205 10.4347C21.3639 11.1074 20.593 12.3864 19.6916 11.9759C19.471 11.8754 19.2081 11.6124 19.1075 11.3918C18.7037 10.5051 19.8777 9.76241 20.6205 10.4347ZM17.2961 11.6799C18.8183 12.4671 19.6177 13.7908 19.6144 15.5188C19.6121 16.7489 19.2702 17.6274 18.4899 18.4077C15.7995 21.0981 11.4679 19.2653 11.4528 15.4301C11.446 13.7126 12.5354 12.1571 14.1673 11.554C14.9858 11.2517 16.5932 11.3164 17.2961 11.6799ZM14.4294 12.9436C13.4339 13.3407 12.7916 14.3404 12.7825 15.5071C12.7656 17.6817 15.0213 18.9832 16.9433 17.9078C17.7 17.4846 18.322 16.4068 18.322 15.5188C18.322 14.6308 17.7 13.553 16.9433 13.1298C16.2477 12.7405 15.1438 12.6588 14.4294 12.9436Z" fill="url(#paint0_linear_3244_382)"/>
<defs>
<linearGradient id="paint0_linear_3244_382" x1="5.27143" y1="4.05495" x2="25.9517" y2="26.9248" gradientUnits="userSpaceOnUse">
<stop stop-color="#FBD525"/>
<stop offset="0.32" stop-color="#FF8064"/>
<stop offset="0.52" stop-color="#EB1C81"/>
<stop offset="1" stop-color="#711CCE"/>
</linearGradient>
</defs>
</svg>

<svg xmlns="http://www.w3.org/2000/svg" width="32" height="31" fill="none" viewBox="0 0 32 31"><path fill="#fff" d="M5.839 6.326h19.95v19.95H5.839z"/><path fill="url(#a)" fill-rule="evenodd" d="M12.483.183C6.265 1.49 1.543 6.225.229 12.473c-.275 1.309-.31 4.352-.065 5.733.742 4.19 3.28 8.036 6.826 10.343 1.52.99 2.763 1.551 4.63 2.092 1.105.32 1.624.366 4.026.358 2.528-.009 2.877-.046 4.204-.453 3.717-1.14 6.74-3.37 8.745-6.452.99-1.521 1.55-2.764 2.092-4.631.32-1.104.366-1.623.358-4.025-.009-2.529-.047-2.878-.454-4.205C28.918 5.773 24.933 1.906 19.36.335 18.065-.03 13.932-.12 12.483.183m8.524 7.545a4.6 4.6 0 0 1 2.251 2.153l.416.836v4.643c0 5.403-.064 5.754-1.293 6.983-1.25 1.25-1.606 1.312-7.17 1.254l-4.756-.05-.753-.442a4.66 4.66 0 0 1-1.939-2.154c-.251-.566-.295-1.268-.339-5.433-.05-4.738-.047-4.791.329-5.547.415-.836 1.557-1.981 2.258-2.264.952-.386 1.727-.431 5.96-.348 3.672.073 4.485.132 5.036.37m-9.254 1.13c-1.117.272-2.026 1.008-2.617 2.12-.263.495-.309 1.036-.356 4.256-.062 4.195.054 4.846 1.041 5.863 1.116 1.149 1.138 1.153 5.756 1.153h4.15l.793-.49a4.2 4.2 0 0 0 1.285-1.285l.49-.794.052-3.79c.06-4.383-.046-4.952-1.121-6.027-1.04-1.04-1.629-1.16-5.569-1.141-1.88.01-3.636.07-3.904.135m8.868 1.577c.743.672-.028 1.951-.93 1.54-.22-.1-.483-.363-.583-.583-.404-.887.77-1.63 1.512-.957m-3.325 1.245c1.522.787 2.322 2.11 2.318 3.839-.002 1.23-.344 2.108-1.124 2.889-2.69 2.69-7.022.857-7.037-2.978-.007-1.717 1.082-3.273 2.714-3.876.819-.302 2.426-.238 3.13.126m-2.867 1.264c-.995.397-1.637 1.396-1.646 2.563-.017 2.175 2.238 3.476 4.16 2.4.757-.422 1.379-1.5 1.379-2.388s-.622-1.966-1.379-2.39c-.695-.388-1.8-.47-2.514-.185" clip-rule="evenodd"/><defs><linearGradient id="a" x1="5.271" x2="25.952" y1="4.055" y2="26.925" gradientUnits="userSpaceOnUse"><stop stop-color="#fbd525"/><stop offset=".32" stop-color="#ff8064"/><stop offset=".52" stop-color="#eb1c81"/><stop offset="1" stop-color="#711cce"/></linearGradient></defs></svg>
